X: 4072
T: Blind Man, The
R: jig
M: 6/8
K: Gmajor
|:DGG GED|EAA ~A3|Bdd BAG|EAA BAE|
DGG GED|EAA ~A3|BdB AGE|DGG ~G3:|
|:Bdd dBd|edB ~d3|BAA ~A3|BAA ~A3|
Bdd dBd|edB ~d3|BAG E2D|EGG ~G3:|

